X: 6778
T: Chapel Bell, The
R: jig
M: 6/8
K: Edorian
FA|:BEE EFA|Bde d3|eBB BAF|d2e dBA|
B2E EFA|Bde d3|eBB BAF|1 AFE EFA:|2 AFE E2A||
|:Bee efe|d2f f2e|dBB BAB|d2e dBA|
B2e efe|def f2e|dBB BAF|1 AFE E2A:|2 AFE EFA||

